images/stasis-eurs.svg

<svg height="250" viewBox="0 0 250 250" width="250" xmlns="http://www.w3.org/2000/svg" xmlns:xlink="http://www.w3.org/1999/xlink"><linearGradient id="a" gradientUnits="userSpaceOnUse" x1="706.39153906067" x2="-33.2897863403" y1="325.98537909233" y2="1.42259143905"><stop offset="0" stop-color="#1a1a1a"/><stop offset="1" stop-color="#1a1a1a" stop-opacity="0"/></linearGradient><filter id="b" height="100%" width="100%" x="0%" y="0%"><feColorMatrix in="SourceGraphic" type="matrix" values="0 0 0 0 1 0 0 0 0 1 0 0 0 0 1 0 0 0 1 0"/></filter><mask id="c"><g filter="url(#b)"><path d="m0 0h250v250h-250z" fill-opacity=".5"/></g></mask><clipPath id="d"><path d="m0 0h251v251h-251z"/></clipPath><linearGradient id="e" gradientUnits="userSpaceOnUse" x1="67.00998719507" x2="188.4591427632" y1="131.6960205953" y2="22.0060381457"><stop offset="0" stop-color="#15bcff"/><stop offset=".485357" stop-color="#3073ec"/><stop offset="1" stop-color="#b030ec"/></linearGradient><path d="m13.878906 100.152344c15.445313-61.941406 78.1875-99.636719 140.144532-84.191406 61.929687 15.445312 99.628906 78.183593 84.179687 140.121093-15.4375 61.953125-78.183594 99.652344-140.121094 84.207031-61.953125-15.441406-99.648437-78.191406-84.203125-140.136718zm0 0" fill="url(#a)"/><g fill="#fff"><path d="m236.152344 152.71875c-15.304688 61.382812-77.484375 98.742188-138.882813 83.433594-61.371093-15.300782-98.734375-77.480469-83.421875-138.859375 15.300782-61.390625 77.480469-98.75 138.859375-83.449219 61.394531 15.304688 98.75 77.488281 83.445313 138.875zm0 0"/><path d="m118.304688 155.609375 7.441406-28.023437 17.621094-6.4375 4.382812-16.46875-.152344-.410157-17.34375 6.335938 12.496094-47.054688h-35.441406l-16.34375 61.410157-13.644532 4.984374-4.507812 16.976563 13.636719-4.980469-9.632813 36.191406h94.324219l6.046875-22.523437z"/><path d="m162.289062 85.855469c-5.554687-14.121094-19.492187-15.398438-35.722656-12.246094l-5.777344-20.144531-12.261718 3.515625 5.628906 19.621093c-3.222656.917969-6.5 1.933594-9.761719 2.9375l-5.65625-19.75-12.253906 3.507813 5.765625 20.144531c-2.636719.816406-5.226562 1.617188-7.769531 2.347656l-.023438-.070312-16.914062 4.847656 3.761719 13.105469s9.007812-2.777344 8.902343-2.5625c4.96875-1.425781 7.410157.996094 8.59375 3.351563l6.585938 22.945312c.335937-.09375.789062-.207031 1.320312-.285156l-1.296875.371094 9.214844 32.15625c.230469 1.625.03125 4.382812-3.4375 5.382812.195312.09375-8.921875 2.550781-8.921875 2.550781l1.769531 15.347657 15.953125-4.585938c2.972657-.835938 5.910157-1.625 8.78125-2.433594l5.851563 20.375 12.246094-3.507812-5.78125-20.160156c3.285156-.871094 6.5625-1.78125 9.828124-2.722657l5.742188 20.074219 12.269531-3.515625-5.832031-20.339844c20.273438-7.097656 33.214844-16.429687 29.457031-36.308593-3.023437-16-12.347656-20.855469-24.859375-20.308594 6.074219-5.660156 8.6875-13.308594 4.597656-23.632813zm-4.652343 48.484375c4.367187 15.230468-22.203125 20.972656-30.507813 23.367187l-7.742187-27c8.304687-2.382812 33.6875-12.246093 38.242187 3.636719zm-16.632813-36.453125c3.96875 13.855469-18.238281 18.476562-25.164062 20.460937l-7.015625-24.484375c6.914062-1.984375 28.035156-10.421875 32.179687 4.03125zm0 0"/></g><g clip-path="url(#d)" mask="url(#c)"><path d="m114.999375 60c0 30.375-24.6225 54.999375-54.999375 54.999375-30.375 0-54.999375-24.624375-54.999375-54.999375s24.624375-54.999375 54.999375-54.999375 54.999375 24.624375 54.999375 54.999375zm0 0" fill="#fff" stroke="#000" stroke-width=".5" transform="scale(2.083333)"/></g><path d="m197.078125 214.078125c25.929687-21.007813 42.503906-53.105469 42.503906-89.078125 0-41.824219-22.40625-78.414062-55.871093-98.417969-32.984376 6.871094-63.464844 22.617188-75.820313 51.046875h115.773437l-12.859374 29.765625h-110.273438c-.519531 4.410157-.78125 9.792969-.78125 16.148438s.519531 12 1.558594 16.925781h94.300781l-12.859375 29.960938h-69.554688c13.988282 23.0625 47.183594 38.960937 83.882813 43.648437zm-44.085937 22.0625c-11.835938-2.839844-22.765626-6.910156-32.785157-12.207031-22.988281-12.191406-39.160156-30.027344-48.511719-53.503906h-41.695312l12.664062-29.960938h21.625c-.777343-6.226562-1.167968-12.125-1.167968-17.703125 0-5.707031.195312-10.832031.585937-15.371094h-33.707031l12.664062-29.765625h27.082032c8.574218-25.164062 24.484375-44.554687 47.734375-58.171875 5.570312-3.292969 11.367187-6.164062 17.394531-8.621093-3.253906-.277344-6.546875-.417969-9.875-.417969-63.28125 0-114.582031 51.300781-114.582031 114.582031s51.300781 114.582031 114.582031 114.582031c9.65625 0 19.035156-1.191406 27.992188-3.441406zm0 0" fill="url(#e)" fill-rule="evenodd"/></svg>

<svg xmlns="http://www.w3.org/2000/svg" xmlns:xlink="http://www.w3.org/1999/xlink" width="250px" height="250px" viewBox="0 0 250 250" version="1.1">
<defs>
<linearGradient id="linear0" gradientUnits="userSpaceOnUse" x1="339.067993" y1="156.473007" x2="-15.9791" y2="0.682844" gradientTransform="matrix(2.083333,0,0,2.083333,0,0)">
<stop offset="0" style="stop-color:rgb(10.196079%,10.196079%,10.196079%);stop-opacity:1;"/>
<stop offset="1" style="stop-color:rgb(10.196079%,10.196079%,10.196079%);stop-opacity:0;"/>
</linearGradient>
<filter id="alpha" filterUnits="objectBoundingBox" x="0%" y="0%" width="100%" height="100%">
  <feColorMatrix type="matrix" in="SourceGraphic" values="0 0 0 0 1 0 0 0 0 1 0 0 0 0 1 0 0 0 1 0"/>
</filter>
<mask id="mask0">
  <g filter="url(#alpha)">
<rect x="0" y="0" width="250" height="250" style="fill:rgb(0%,0%,0%);fill-opacity:0.5;stroke:none;"/>
  </g>
</mask>
<clipPath id="clip1">
  <rect x="0" y="0" width="251" height="251"/>
</clipPath>
<g id="surface5" clip-path="url(#clip1)">
<path style="fill-rule:nonzero;fill:rgb(100%,100%,100%);fill-opacity:1;stroke-width:0.5;stroke-linecap:butt;stroke-linejoin:miter;stroke:rgb(0%,0%,0%);stroke-opacity:1;stroke-miterlimit:4;" d="M 114.999375 60 C 114.999375 90.375 90.376875 114.999375 60 114.999375 C 29.625 114.999375 5.000625 90.375 5.000625 60 C 5.000625 29.625 29.625 5.000625 60 5.000625 C 90.375 5.000625 114.999375 29.625 114.999375 60 Z M 114.999375 60 " transform="matrix(2.083333,0,0,2.083333,0,0)"/>
</g>
<linearGradient id="linear1" gradientUnits="userSpaceOnUse" x1="32.164799" y1="63.2141" x2="90.460403" y2="10.5629" gradientTransform="matrix(2.083333,0,0,2.083333,0,0)">
<stop offset="0" style="stop-color:rgb(8.235294%,73.725492%,100%);stop-opacity:1;"/>
<stop offset="0.485357" style="stop-color:rgb(18.82353%,45.09804%,92.54902%);stop-opacity:1;"/>
<stop offset="1" style="stop-color:rgb(69.01961%,18.82353%,92.54902%);stop-opacity:1;"/>
</linearGradient>
</defs>
<g id="surface1">
<path style=" stroke:none;fill-rule:nonzero;fill:url(#linear0);" d="M 13.878906 100.152344 C 29.324219 38.210938 92.066406 0.515625 154.023438 15.960938 C 215.953125 31.40625 253.652344 94.144531 238.203125 156.082031 C 222.765625 218.035156 160.019531 255.734375 98.082031 240.289062 C 36.128906 224.847656 -1.566406 162.097656 13.878906 100.152344 Z M 13.878906 100.152344 "/>
<path style=" stroke:none;fill-rule:nonzero;fill:rgb(100%,100%,100%);fill-opacity:1;" d="M 236.152344 152.71875 C 220.847656 214.101562 158.667969 251.460938 97.269531 236.152344 C 35.898438 220.851562 -1.464844 158.671875 13.847656 97.292969 C 29.148438 35.902344 91.328125 -1.457031 152.707031 13.84375 C 214.101562 29.148438 251.457031 91.332031 236.152344 152.71875 Z M 236.152344 152.71875 "/>
<path style=" stroke:none;fill-rule:nonzero;fill:rgb(100%,100%,100%);fill-opacity:1;" d="M 118.304688 155.609375 L 125.746094 127.585938 L 143.367188 121.148438 L 147.75 104.679688 L 147.597656 104.269531 L 130.253906 110.605469 L 142.75 63.550781 L 107.308594 63.550781 L 90.964844 124.960938 L 77.320312 129.945312 L 72.8125 146.921875 L 86.449219 141.941406 L 76.816406 178.132812 L 171.140625 178.132812 L 177.1875 155.609375 L 118.304688 155.609375 "/>
<path style=" stroke:none;fill-rule:nonzero;fill:rgb(100%,100%,100%);fill-opacity:1;" d="M 162.289062 85.855469 C 156.734375 71.734375 142.796875 70.457031 126.566406 73.609375 L 120.789062 53.464844 L 108.527344 56.980469 L 114.15625 76.601562 C 110.933594 77.519531 107.65625 78.535156 104.394531 79.539062 L 98.738281 59.789062 L 86.484375 63.296875 L 92.25 83.441406 C 89.613281 84.257812 87.023438 85.058594 84.480469 85.789062 L 84.457031 85.71875 L 67.542969 90.566406 L 71.304688 103.671875 C 71.304688 103.671875 80.3125 100.894531 80.207031 101.109375 C 85.175781 99.683594 87.617188 102.105469 88.800781 104.460938 L 95.386719 127.40625 C 95.722656 127.3125 96.175781 127.199219 96.707031 127.121094 L 95.410156 127.492188 L 104.625 159.648438 C 104.855469 161.273438 104.65625 164.03125 101.1875 165.03125 C 101.382812 165.125 92.265625 167.582031 92.265625 167.582031 L 94.035156 182.929688 L 109.988281 178.34375 C 112.960938 177.507812 115.898438 176.71875 118.769531 175.910156 L 124.621094 196.285156 L 136.867188 192.777344 L 131.085938 172.617188 C 134.371094 171.746094 137.648438 170.835938 140.914062 169.894531 L 146.65625 189.96875 L 158.925781 186.453125 L 153.09375 166.113281 C 173.367188 159.015625 186.308594 149.683594 182.550781 129.804688 C 179.527344 113.804688 170.203125 108.949219 157.691406 109.496094 C 163.765625 103.835938 166.378906 96.1875 162.289062 85.863281 Z M 157.636719 134.339844 C 162.003906 149.570312 135.433594 155.3125 127.128906 157.707031 L 119.386719 130.707031 C 127.691406 128.324219 153.074219 118.460938 157.628906 134.34375 Z M 141.003906 97.886719 C 144.972656 111.742188 122.765625 116.363281 115.839844 118.347656 L 108.824219 93.863281 C 115.738281 91.878906 136.859375 83.441406 141.003906 97.894531 Z M 141.003906 97.886719 "/>
<use xlink:href="#surface5" mask="url(#mask0)"/>
<path style=" stroke:none;fill-rule:evenodd;fill:url(#linear1);" d="M 197.078125 214.078125 C 223.007812 193.070312 239.582031 160.972656 239.582031 125 C 239.582031 83.175781 217.175781 46.585938 183.710938 26.582031 C 150.726562 33.453125 120.246094 49.199219 107.890625 77.628906 L 223.664062 77.628906 L 210.804688 107.394531 L 100.53125 107.394531 C 100.011719 111.804688 99.75 117.1875 99.75 123.542969 C 99.75 129.898438 100.269531 135.542969 101.308594 140.46875 L 195.609375 140.46875 L 182.75 170.429688 L 113.195312 170.429688 C 127.183594 193.492188 160.378906 209.390625 197.078125 214.078125 Z M 152.992188 236.140625 C 141.15625 233.300781 130.226562 229.230469 120.207031 223.933594 C 97.21875 211.742188 81.046875 193.90625 71.695312 170.429688 L 30 170.429688 L 42.664062 140.46875 L 64.289062 140.46875 C 63.511719 134.242188 63.121094 128.34375 63.121094 122.765625 C 63.121094 117.058594 63.316406 111.933594 63.707031 107.394531 L 30 107.394531 L 42.664062 77.628906 L 69.746094 77.628906 C 78.320312 52.464844 94.230469 33.074219 117.480469 19.457031 C 123.050781 16.164062 128.847656 13.292969 134.875 10.835938 C 131.621094 10.558594 128.328125 10.417969 125 10.417969 C 61.71875 10.417969 10.417969 61.71875 10.417969 125 C 10.417969 188.28125 61.71875 239.582031 125 239.582031 C 134.65625 239.582031 144.035156 238.390625 152.992188 236.140625 Z M 152.992188 236.140625 "/>
</g>
</svg>
